packages/kaspersky-hexa-ui-icons/src/iconsSVGs/16/Connect.svg

<svg width="16" height="16" viewBox="0 0 16 16" fill="none" xmlns="http://www.w3.org/2000/svg">
<path fill-rule="evenodd" clip-rule="evenodd" d="M6.5522 1.68369C6.5522 1.32471 6.26118 1.03369 5.9022 1.03369C5.54321 1.03369 5.2522 1.32471 5.2522 1.68369V3.82922H4.69189C3.44925 3.82922 2.44189 4.83658 2.44189 6.07922V7.93203C2.44189 10.2792 4.34468 12.182 6.69189 12.182H7.3501V14.3165C7.3501 14.6755 7.64111 14.9665 8.0001 14.9665C8.35908 14.9665 8.6501 14.6755 8.6501 14.3165V12.182H9.30826C11.6555 12.182 13.5583 10.2792 13.5583 7.93203V6.07922C13.5583 4.83658 12.5509 3.82922 11.3083 3.82922H10.748V1.68369C10.748 1.32471 10.457 1.03369 10.098 1.03369C9.73901 1.03369 9.448 1.32471 9.448 1.68369V3.82922H6.5522V1.68369ZM3.74189 6.07922C3.74189 5.55455 4.16722 5.12922 4.69189 5.12922H11.3083C11.8329 5.12922 12.2583 5.55455 12.2583 6.07922V7.93203C12.2583 9.56127 10.9375 10.882 9.30826 10.882H6.69189C5.06265 10.882 3.74189 9.56127 3.74189 7.93203V6.07922Z" fill="black"/>
</svg>

<svg xmlns="http://www.w3.org/2000/svg" width="16" height="16" fill="none" viewBox="0 0 16 16"><path fill="#000" fill-rule="evenodd" d="M6.5522 1.6837a.65.65 0 0 0-1.3 0v2.1455h-.5603c-1.2427 0-2.25 1.0074-2.25 2.25V7.932c0 2.3472 1.9028 4.25 4.25 4.25H7.35v2.1345a.65.65 0 1 0 1.3 0V12.182h.6582c2.3472 0 4.25-1.9028 4.25-4.25V6.0792c0-1.2426-1.0074-2.25-2.25-2.25h-.5603V1.6837a.65.65 0 1 0-1.3 0v2.1455H6.5522zM3.7419 6.0792a.95.95 0 0 1 .95-.95h6.6164a.95.95 0 0 1 .95.95V7.932c0 1.6293-1.3208 2.95-2.95 2.95H6.6919c-1.6293 0-2.95-1.3207-2.95-2.95z"/></svg>
